packages/clerk-js/src/ui/icons/lock-dotted-circle.svg

<svg width="16" height="16" viewBox="0 0 16 16" fill="none" xmlns="http://www.w3.org/2000/svg">
<path fill-rule="evenodd" clip-rule="evenodd" d="M7.99999 3.5C7.79934 3.5 7.60212 3.51309 7.40907 3.53837C6.99836 3.59215 6.62182 3.3028 6.56804 2.89209C6.51426 2.48139 6.8036 2.10484 7.21431 2.05106C7.47177 2.01735 7.73404 2 7.99999 2C8.26594 2 8.52821 2.01735 8.78567 2.05106C9.19637 2.10484 9.48572 2.48139 9.43194 2.89209C9.37816 3.3028 9.00161 3.59215 8.59091 3.53837C8.39786 3.51309 8.20064 3.5 7.99999 3.5ZM5.61514 3.26194C5.85211 3.60167 5.7688 4.06918 5.42907 4.30615C5.14175 4.50656 4.87879 4.73971 4.64565 5.00019C4.36941 5.30883 3.89526 5.3351 3.58662 5.05885C3.27797 4.78261 3.25171 4.30846 3.52795 3.99981C3.83819 3.65319 4.1882 3.34283 4.57092 3.07587C4.91066 2.8389 5.37817 2.92221 5.61514 3.26194ZM10.3848 3.26194C10.6218 2.92221 11.0893 2.8389 11.4291 3.07587C11.8118 3.34283 12.1618 3.65319 12.472 3.99981C12.7483 4.30846 12.722 4.78261 12.4134 5.05885C12.1047 5.3351 11.6306 5.30883 11.3543 5.00019C11.1212 4.73971 10.8582 4.50656 10.5709 4.30615C10.2312 4.06918 10.1479 3.60167 10.3848 3.26194ZM7.99999 6.5C7.44771 6.5 6.99999 6.94772 6.99999 7.5V8H8.99999V7.5C8.99999 6.94772 8.55227 6.5 7.99999 6.5ZM10.5 8V7.5C10.5 6.11929 9.3807 5 7.99999 5C6.61928 5 5.49999 6.11929 5.49999 7.5V8H4.74999C4.33578 8 3.99999 8.33579 3.99999 8.75V12.25C3.99999 13.2165 4.78349 14 5.74999 14H10.25C11.2165 14 12 13.2165 12 12.25V8.75C12 8.33579 11.6642 8 11.25 8H10.5ZM10.5 9.5H5.49999V12.25C5.49999 12.3881 5.61192 12.5 5.74999 12.5H10.25C10.3881 12.5 10.5 12.3881 10.5 12.25V9.5ZM3.18134 5.78116C3.57834 5.89931 3.80439 6.31693 3.68624 6.71394C3.60435 6.98908 3.54804 7.27548 3.52016 7.57054C3.4812 7.98292 3.11532 8.28564 2.70294 8.24668C2.29057 8.20771 1.98785 7.84183 2.02681 7.42946C2.06395 7.03636 2.13907 6.65393 2.24856 6.28606C2.36671 5.88906 2.78433 5.66301 3.18134 5.78116ZM12.8186 5.78116C13.2156 5.66301 13.6333 5.88906 13.7514 6.28606C13.8609 6.65393 13.936 7.03636 13.9732 7.42946C14.0121 7.84183 13.7094 8.20771 13.297 8.24668C12.8847 8.28564 12.5188 7.98292 12.4798 7.57054C12.4519 7.27548 12.3956 6.98908 12.3137 6.71394C12.1956 6.31693 12.4216 5.89931 12.8186 5.78116Z" fill="currentColor"/>
</svg>

<svg xmlns="http://www.w3.org/2000/svg" width="16" height="16" fill="none"><path fill="currentColor" fill-rule="evenodd" d="M8 3.5c-.2 0-.398.013-.59.038a.75.75 0 0 1-.196-1.487 6.05 6.05 0 0 1 1.572 0 .75.75 0 0 1-.195 1.487A4.55 4.55 0 0 0 8 3.5Zm-2.385-.238a.75.75 0 0 1-.186 1.044c-.287.2-.55.434-.783.694a.75.75 0 1 1-1.118-1 6.03 6.03 0 0 1 1.043-.924.75.75 0 0 1 1.044.186Zm4.77 0a.75.75 0 0 1 1.044-.186c.383.267.733.577 1.043.924a.75.75 0 1 1-1.118 1 4.528 4.528 0 0 0-.783-.694.75.75 0 0 1-.186-1.044ZM8 6.5a1 1 0 0 0-1 1V8h2v-.5a1 1 0 0 0-1-1ZM10.5 8v-.5a2.5 2.5 0 0 0-5 0V8h-.75a.75.75 0 0 0-.75.75v3.5c0 .966.783 1.75 1.75 1.75h4.5A1.75 1.75 0 0 0 12 12.25v-3.5a.75.75 0 0 0-.75-.75h-.75Zm0 1.5h-5v2.75c0 .138.112.25.25.25h4.5a.25.25 0 0 0 .25-.25V9.5ZM3.181 5.781a.75.75 0 0 1 .505.933 4.477 4.477 0 0 0-.166.857.75.75 0 1 1-1.493-.142c.037-.393.112-.775.222-1.143a.75.75 0 0 1 .932-.505Zm9.638 0a.75.75 0 0 1 .932.505c.11.368.185.75.222 1.143a.75.75 0 0 1-1.493.142 4.478 4.478 0 0 0-.166-.857.75.75 0 0 1 .505-.933Z" clip-rule="evenodd"/></svg>
